X: 772
M: C
L: 1/8
K: Gmix
V: 1
|:\
|:\
bage d/d/d b>a | gedB ABAG :|
V: 2 clef=bass middle=d
|:\
g2g2 g2g2 | a2a2 a2a2 |\
g2g2 g2g2 | g2g2 a2a2 :|
|:\
g2g2 g2g2 | a2a2 a2a2 |\
g2g2 g2g2 | g2g2 a2a2 :|

